inst/extdata/targets/A70.ti3
CTI3   

KEYWORD "TARGET_INSTRUMENT"
TARGET_INSTRUMENT "Xrite i1 DisplayPro, ColorMunki Display"
KEYWORD "LUMINANCE_XYZ_CDM2"
LUMINANCE_XYZ_CDM2 "67.092928 70.384254 76.973555"

BEGIN_ARGYLL_COLPROF_ARGS
-v -qm -as -C "No copyright. Created with dispcalGUI 2.1.0.0 and Argyll CMS 1.6.3" -M "A70" -A "ViewSonic Corporation"
END_ARGYLL_COLPROF_ARGS

KEYWORD "MULTI_DIM_STEPS"
MULTI_DIM_STEPS "3"
KEYWORD "SMOOTH_B2A_SIZE"
SMOOTH_B2A_SIZE "33"
KEYWORD "DISPLAY_TYPE_BASE_ID"
DISPLAY_TYPE_BASE_ID "2"
KEYWORD "COLOR_REP"
COLOR_REP "RGB_XYZ"
KEYWORD "NORMALIZED_TO_Y_100"
NORMALIZED_TO_Y_100 "YES"
ORIGINATOR "Argyll dispread"
KEYWORD "USE_BLACK_POINT_COMPENSATION"
USE_BLACK_POINT_COMPENSATION "NO"
CREATED "Sun Nov 09 00:12:14 2014"
KEYWORD "DISPLAY_TYPE_REFRESH"
DISPLAY_TYPE_REFRESH "YES"
KEYWORD "COMP_GREY_STEPS"
COMP_GREY_STEPS "9"
KEYWORD "VIDEO_LUT_CALIBRATION_POSSIBLE"
VIDEO_LUT_CALIBRATION_POSSIBLE "YES"
KEYWORD "SINGLE_DIM_STEPS"
SINGLE_DIM_STEPS "3"
DESCRIPTOR "Argyll Calibration Target chart information 3"
KEYWORD "DEVICE_CLASS"
DEVICE_CLASS "DISPLAY"
KEYWORD "SMOOTH_B2A"
SMOOTH_B2A "YES"
KEYWORD "INSTRUMENT_TYPE_SPECTRAL"
INSTRUMENT_TYPE_SPECTRAL "NO"

NUMBER_OF_FIELDS 7
BEGIN_DATA_FORMAT
SAMPLE_ID RGB_R RGB_G RGB_B XYZ_X XYZ_Y XYZ_Z
END_DATA_FORMAT

NUMBER_OF_SETS 57
BEGIN_DATA
1 100.00000 100.00000 100.00000 95.323800 100.00000 109.36200
2 100.00000 100.00000 100.00000 95.100300 99.763900 109.23600
3 100.00000 100.00000 100.00000 95.100300 99.763900 109.23600
4 100.00000 100.00000 100.00000 95.051900 99.714700 109.11100
5 0.0000000 0.0000000 0.0000000 0.1132290 0.0894703 0.1045710
6 0.0000000 0.0000000 0.0000000 0.1104420 0.0877660 0.1044680
7 0.0000000 0.0000000 0.0000000 0.1102470 0.0877107 0.1047960
8 0.0000000 0.0000000 0.0000000 0.1102660 0.0877938 0.1050080
9 12.500000 12.500000 12.500000 1.5117900 1.5930100 1.7521800
10 25.000000 25.000000 25.000000 4.9964800 5.2755100 5.6650200
11 37.500000 37.500000 37.500000 11.311300 11.781000 13.042600
12 50.000000 50.000000 50.000000 20.943600 22.187300 24.081900
13 62.500000 62.500000 62.500000 33.362100 35.075200 38.252900
14 75.000000 75.000000 75.000000 49.507000 51.919400 57.188100
15 87.500000 87.500000 87.500000 70.120000 73.760400 80.393500
16 0.0000000 0.0000000 50.000000 4.2179700 1.8138600 21.625300
17 0.0000000 0.0000000 100.00000 18.970900 8.0511500 99.181000
18 0.0000000 50.000000 0.0000000 7.9435000 15.934800 2.8272300
19 0.0000000 50.000000 50.000000 11.904500 17.602800 23.864300
20 0.0000000 50.000000 100.00000 26.584500 23.660400 101.28100
21 0.0000000 100.00000 0.0000000 35.289700 72.000300 12.708700
22 0.0000000 100.00000 50.000000 39.144500 73.534900 33.193500
23 0.0000000 100.00000 100.00000 53.575100 79.338500 109.51200
24 25.000000 25.000000 75.000000 13.699000 8.8972500 51.876000
25 25.000000 75.000000 25.000000 21.272500 38.595200 11.315600
26 25.000000 75.000000 75.000000 29.892300 42.096900 56.949100
27 50.000000 0.0000000 0.0000000 9.4362900 4.9294900 0.6402800
28 50.000000 0.0000000 50.000000 13.335500 6.5696400 21.674700
29 50.000000 0.0000000 100.00000 27.983700 12.725100 98.927800
30 50.000000 50.000000 0.0000000 17.029600 20.550400 3.3453100
31 50.000000 50.000000 100.00000 35.439700 28.176900 100.90200
32 50.000000 100.00000 0.0000000 44.199600 76.308000 13.202500
33 50.000000 100.00000 50.000000 47.931300 77.816000 33.437800
34 50.000000 100.00000 100.00000 62.204800 83.599400 109.25700
35 75.000000 25.000000 25.000000 25.130900 15.657900 6.6365000
36 75.000000 25.000000 75.000000 33.585100 19.188400 51.979500
37 75.000000 75.000000 25.000000 41.142100 48.543200 12.221400
38 100.00000 0.0000000 0.0000000 43.724900 22.815500 2.7371000
39 100.00000 0.0000000 50.000000 47.472200 24.323700 22.969400
40 100.00000 0.0000000 100.00000 61.727600 30.344800 98.916200
41 100.00000 50.000000 0.0000000 51.129900 37.945900 5.3402000
42 100.00000 50.000000 50.000000 54.774900 39.414400 25.316000
43 100.00000 50.000000 100.00000 68.983200 45.305500 101.01200
44 100.00000 100.00000 0.0000000 77.770300 92.840600 15.067400
45 100.00000 100.00000 50.000000 81.387700 94.307000 34.541900
46 0.0000000 12.500000 100.00000 19.505700 9.0980700 99.392600
47 12.500000 0.0000000 100.00000 19.552000 8.3471800 99.181300
48 0.0000000 100.00000 12.500000 35.571700 72.138400 14.094700
49 12.500000 100.00000 0.0000000 35.918000 72.361800 12.792500
50 100.00000 0.0000000 12.500000 43.942000 22.929600 4.0058500
51 100.00000 12.500000 0.0000000 44.154800 23.775700 2.8858800
52 0.0000000 25.000000 100.00000 20.762400 11.670700 99.621300
53 25.000000 0.0000000 100.00000 21.044300 9.1240600 99.130800
54 0.0000000 100.00000 25.000000 36.209600 72.391500 17.355900
55 25.000000 100.00000 0.0000000 37.317400 72.980200 12.874400
56 100.00000 0.0000000 25.000000 44.610400 23.147200 7.1808300
57 100.00000 25.000000 0.0000000 45.486500 26.265900 3.3305600
END_DATA
CAL    

ORIGINATOR "Argyll dispread"
CREATED "Sun Nov 09 00:12:14 2014"
KEYWORD "DEVICE_CLASS"
DEVICE_CLASS "DISPLAY"
DESCRIPTOR "Argyll Device Calibration State"

BEGIN_ARGYLL_DISPCAL_ARGS
-v2 -ql -m -t6500 -b70.0 -gs -f1.0 -k0 -A4.0 -d1 -c1 -yr -P0.5,0.5,1.5 -X "CRT.ccss" -Ib
END_ARGYLL_DISPCAL_ARGS

KEYWORD "COLOR_REP"
COLOR_REP "RGB"

KEYWORD "RGB_I"
NUMBER_OF_FIELDS 4
BEGIN_DATA_FORMAT
RGB_I RGB_R RGB_G RGB_B
END_DATA_FORMAT

NUMBER_OF_SETS 256
BEGIN_DATA
0.00000000 0.00432060 0.01444210 0.01184760
0.00392157 0.00906662 0.04550810 0.02642560
0.00784314 0.01370410 0.06515530 0.03850030
0.01176470 0.01823680 0.07950910 0.04867300
0.01568630 0.02266820 0.09055810 0.05746450
0.01960780 0.02700170 0.09932050 0.06524560
0.02352940 0.03124040 0.10656700 0.07226500
0.02745100 0.03538740 0.11273800 0.07867890
0.03137250 0.03944490 0.11816400 0.08457800
0.03529410 0.04342380 0.12309700 0.09003250
0.03921570 0.04731940 0.12763600 0.09512390
0.04313730 0.05113080 0.13190200 0.09990980
0.04705880 0.05486790 0.13596000 0.10443200
0.05098040 0.05854530 0.13982200 0.10874100
0.05490200 0.06216670 0.14353600 0.11287800
0.05882350 0.06573120 0.14716900 0.11686100
0.06274510 0.06924530 0.15072400 0.12072800
0.06666670 0.07271420 0.15421800 0.12448600
0.07058820 0.07614280 0.15764800 0.12815400
0.07450980 0.07955030 0.16104000 0.13176300
0.07843140 0.08294920 0.16441100 0.13532000
0.08235290 0.08635640 0.16775600 0.13882200
0.08627450 0.08977360 0.17107200 0.14226600
0.09019610 0.09320500 0.17435400 0.14569200
0.09411760 0.09664680 0.17759300 0.14910400
0.09803920 0.10009300 0.18079200 0.15250300
0.10196100 0.10353800 0.18395700 0.15588600
0.10588200 0.10698200 0.18712000 0.15924600
0.10980400 0.11042500 0.19029700 0.16257800
0.11372500 0.11386400 0.19348800 0.16591600
0.11764700 0.11730600 0.19669700 0.16926100
0.12156900 0.12075200 0.19992400 0.17260200
0.12549000 0.12419700 0.20317000 0.17593000
0.12941200 0.12763800 0.20643200 0.17924500
0.13333300 0.13107700 0.20969200 0.18254900
0.13725500 0.13451300 0.21294500 0.18584000
0.14117600 0.13794600 0.21619400 0.18910600
0.14509800 0.14137500 0.21943400 0.19236300
0.14902000 0.14479600 0.22266000 0.19563500
0.15294100 0.14821000 0.22586900 0.19892500
0.15686300 0.15159800 0.22904600 0.20223600
0.16078400 0.15496400 0.23221000 0.20555900
0.16470600 0.15831200 0.23537900 0.20888900
0.16862700 0.16165300 0.23855800 0.21222800
0.17254900 0.16498800 0.24175300 0.21556600
0.17647100 0.16831700 0.24496700 0.21889800
0.18039200 0.17163500 0.24820200 0.22222300
0.18431400 0.17494500 0.25146000 0.22551900
0.18823500 0.17825000 0.25474300 0.22876500
0.19215700 0.18155100 0.25801800 0.23197300
0.19607800 0.18484700 0.26127000 0.23515200
0.20000000 0.18813700 0.26450100 0.23831400
0.20392200 0.19142800 0.26771000 0.24148100
0.20784300 0.19472500 0.27089400 0.24465300
0.21176500 0.19802600 0.27407000 0.24783200
0.21568600 0.20132300 0.27723800 0.25102700
0.21960800 0.20461100 0.28040300 0.25422300
0.22352900 0.20789300 0.28356900 0.25741500
0.22745100 0.21116900 0.28673400 0.26060400
0.23137300 0.21443100 0.28989300 0.26380100
0.23529400 0.21767400 0.29301300 0.26699400
0.23921600 0.22091200 0.29608700 0.27019100
0.24313700 0.22415400 0.29914000 0.27339500
0.24705900 0.22740900 0.30218600 0.27661400
0.25098000 0.23068100 0.30525100 0.27985600
0.25490200 0.23397700 0.30832500 0.28311900
0.25882400 0.23730500 0.31141700 0.28638600
0.26274500 0.24068200 0.31453100 0.28964200
0.26666700 0.24410800 0.31767100 0.29289000
0.27058800 0.24758600 0.32083600 0.29614900
0.27451000 0.25112100 0.32402800 0.29942900
0.27843100 0.25471900 0.32725700 0.30272700
0.28235300 0.25838700 0.33055600 0.30602600
0.28627500 0.26213100 0.33391000 0.30932800
0.29019600 0.26596100 0.33729700 0.31263400
0.29411800 0.26986900 0.34068500 0.31595800
0.29803900 0.27381700 0.34407100 0.31930100
0.30196100 0.27779100 0.34745200 0.32266400
0.30588200 0.28177600 0.35082200 0.32605800
0.30980400 0.28576300 0.35417400 0.32948700
0.31372500 0.28974700 0.35750800 0.33291700
0.31764700 0.29370700 0.36081200 0.33633800
0.32156900 0.29763700 0.36407400 0.33974900
0.32549000 0.30153100 0.36731900 0.34315300
0.32941200 0.30539500 0.37057200 0.34655100
0.33333300 0.30923500 0.37383400 0.34993800
0.33725500 0.31305000 0.37710300 0.35331200
0.34117600 0.31684200 0.38038500 0.35667100
0.34509800 0.32059600 0.38369100 0.36000200
0.34902000 0.32431000 0.38702500 0.36331600
0.35294100 0.32798500 0.39038800 0.36663200
0.35686300 0.33162200 0.39377400 0.36996000
0.36078400 0.33523300 0.39715200 0.37329900
0.36470600 0.33882400 0.40047200 0.37665900
0.36862700 0.34239300 0.40373200 0.38005200
0.37254900 0.34594000 0.40693500 0.38348600
0.37647100 0.34947000 0.41009400 0.38696600
0.38039200 0.35297900 0.41322000 0.39047800
0.38431400 0.35646500 0.41636100 0.39397800
0.38823500 0.35992400 0.41953400 0.39743700
0.39215700 0.36337500 0.42275200 0.40086100
0.39607800 0.36682900 0.42602200 0.40425300
0.40000000 0.37029600 0.42935400 0.40762700
0.40392200 0.37378200 0.43275800 0.41098100
0.40784300 0.37728700 0.43619200 0.41432000
0.41176500 0.38080600 0.43963000 0.41767700
0.41568600 0.38433800 0.44307700 0.42105300
0.41960800 0.38787500 0.44654600 0.42445500
0.42352900 0.39142000 0.45003600 0.42788800
0.42745100 0.39498500 0.45352700 0.43135400
0.43137300 0.39856400 0.45701500 0.43481400
0.43529400 0.40216200 0.46049400 0.43825600
0.43921600 0.40577400 0.46396200 0.44169000
0.44313700 0.40939400 0.46743300 0.44512200
0.44705900 0.41302500 0.47091000 0.44854900
0.45098000 0.41666300 0.47438900 0.45195900
0.45490200 0.42029800 0.47787100 0.45536300
0.45882400 0.42393200 0.48135700 0.45876200
0.46274500 0.42756900 0.48488900 0.46216700
0.46666700 0.43120700 0.48850200 0.46557700
0.47058800 0.43482500 0.49215500 0.46899200
0.47451000 0.43842300 0.49579300 0.47241300
0.47843100 0.44201100 0.49938100 0.47585600
0.48235300 0.44560000 0.50292200 0.47932400
0.48627500 0.44919100 0.50642000 0.48284400
0.49019600 0.45278500 0.50988300 0.48642100
0.49411800 0.45638300 0.51331800 0.49000100
0.49803900 0.45998500 0.51672900 0.49357600
0.50196100 0.46359000 0.52011000 0.49714700
0.50588200 0.46720300 0.52346700 0.50071300
0.50980400 0.47081900 0.52681100 0.50427500
0.51372500 0.47443200 0.53014000 0.50783400
0.51764700 0.47804200 0.53343000 0.51138000
0.52156900 0.48165000 0.53667100 0.51490800
0.52549000 0.48525600 0.53989400 0.51840700
0.52941200 0.48885700 0.54311900 0.52188700
0.53333300 0.49245400 0.54634800 0.52536200
0.53725500 0.49603700 0.54958700 0.52882300
0.54117600 0.49960100 0.55284200 0.53225900
0.54509800 0.50315700 0.55608900 0.53567400
0.54902000 0.50672700 0.55929200 0.53909300
0.55294100 0.51030700 0.56245200 0.54251500
0.55686300 0.51389700 0.56558100 0.54594300
0.56078400 0.51749900 0.56869200 0.54938100
0.56470600 0.52110800 0.57178600 0.55280600
0.56862700 0.52472200 0.57486800 0.55619800
0.57254900 0.52834800 0.57797900 0.55956700
0.57647100 0.53198400 0.58112300 0.56292700
0.58039200 0.53560500 0.58428700 0.56629000
0.58431400 0.53918700 0.58747000 0.56965600
0.58823500 0.54273700 0.59067600 0.57302700
0.59215700 0.54627300 0.59390800 0.57642500
0.59607800 0.54980900 0.59714900 0.57984900
0.60000000 0.55335200 0.60040400 0.58329700
0.60392200 0.55689900 0.60370900 0.58677400
0.60784300 0.56045600 0.60707300 0.59028900
0.61176500 0.56403200 0.61050100 0.59383000
0.61568600 0.56763000 0.61400500 0.59738700
0.61960800 0.57125800 0.61760600 0.60098000
0.62352900 0.57491700 0.62130300 0.60462400
0.62745100 0.57858800 0.62508900 0.60832000
0.63137300 0.58227200 0.62896600 0.61206800
0.63529400 0.58596400 0.63293900 0.61587600
0.63921600 0.58965900 0.63702200 0.61973500
0.64313700 0.59334800 0.64122100 0.62364200
0.64705900 0.59703400 0.64547900 0.62759700
0.65098000 0.60072400 0.64962100 0.63160400
0.65490200 0.60441500 0.65360100 0.63566700
0.65882400 0.60810400 0.65740600 0.63978100
0.66274500 0.61179200 0.66105700 0.64385400
0.66666700 0.61548100 0.66456900 0.64779500
0.67058800 0.61917200 0.66795300 0.65159000
0.67451000 0.62285500 0.67122600 0.65524600
0.67843100 0.62650000 0.67440300 0.65878600
0.68235300 0.63010600 0.67751900 0.66222700
0.68627500 0.63367800 0.68058300 0.66557800
0.69019600 0.63721700 0.68359800 0.66885500
0.69411800 0.64073100 0.68657600 0.67206800
0.69803900 0.64422600 0.68957000 0.67524200
0.70196100 0.64772000 0.69258600 0.67838100
0.70588200 0.65121900 0.69562500 0.68149100
0.70980400 0.65471700 0.69869200 0.68458200
0.71372500 0.65821200 0.70177100 0.68768200
0.71764700 0.66170900 0.70485800 0.69079300
0.72156900 0.66520500 0.70794900 0.69392000
0.72549000 0.66870000 0.71104400 0.69706100
0.72941200 0.67219300 0.71414400 0.70020300
0.73333300 0.67569600 0.71728500 0.70335000
0.73725500 0.67921000 0.72048800 0.70650500
0.74117600 0.68273800 0.72373600 0.70966000
0.74509800 0.68628200 0.72699700 0.71281300
0.74902000 0.68983900 0.73026800 0.71597800
0.75294100 0.69340700 0.73354700 0.71918000
0.75686300 0.69698700 0.73683100 0.72240900
0.76078400 0.70060300 0.74012000 0.72566300
0.76470600 0.70426300 0.74339900 0.72894500
0.76862700 0.70796900 0.74667800 0.73225800
0.77254900 0.71171000 0.74999900 0.73560400
0.77647100 0.71547400 0.75337100 0.73896800
0.78039200 0.71923300 0.75679000 0.74235100
0.78431400 0.72297600 0.76025300 0.74577500
0.78823500 0.72669800 0.76376900 0.74924800
0.79215700 0.73039500 0.76734400 0.75276900
0.79607800 0.73407000 0.77092400 0.75633700
0.80000000 0.73772900 0.77445300 0.75996900
0.80392200 0.74137000 0.77793700 0.76367100
0.80784300 0.74499300 0.78139200 0.76739200
0.81176500 0.74859400 0.78482200 0.77108400
0.81568600 0.75217200 0.78824100 0.77475000
0.81960800 0.75573200 0.79165400 0.77839600
0.82352900 0.75928000 0.79505600 0.78202400
0.82745100 0.76282100 0.79846400 0.78564200
0.83137300 0.76636600 0.80190600 0.78925800
0.83529400 0.76992700 0.80537300 0.79287100
0.83921600 0.77350700 0.80886900 0.79649200
0.84313700 0.77711400 0.81240100 0.80013300
0.84705900 0.78075500 0.81598000 0.80378800
0.85098000 0.78442200 0.81960600 0.80745200
0.85490200 0.78812200 0.82325500 0.81113100
0.85882400 0.79187400 0.82687800 0.81483500
0.86274500 0.79568100 0.83048300 0.81856500
0.86666700 0.79950900 0.83407100 0.82228700
0.87058800 0.80333900 0.83764600 0.82598800
0.87451000 0.80717300 0.84125500 0.82967800
0.87843100 0.81101200 0.84490100 0.83336500
0.88235300 0.81485300 0.84858700 0.83706400
0.88627500 0.81869100 0.85230700 0.84079700
0.89019600 0.82252100 0.85599700 0.84456000
0.89411800 0.82633600 0.85964700 0.84835400
0.89803900 0.83012600 0.86326900 0.85213300
0.90196100 0.83390200 0.86690200 0.85589100
0.90588200 0.83766600 0.87055200 0.85965000
0.90980400 0.84141200 0.87419200 0.86344000
0.91372500 0.84514600 0.87781800 0.86726100
0.91764700 0.84886800 0.88144900 0.87109400
0.92156900 0.85258400 0.88508500 0.87493500
0.92549000 0.85631300 0.88870700 0.87880500
0.92941200 0.86004100 0.89231000 0.88269600
0.93333300 0.86375300 0.89589200 0.88659400
0.93725500 0.86745300 0.89945600 0.89048900
0.94117600 0.87114700 0.90300700 0.89436300
0.94509800 0.87484000 0.90654800 0.89822000
0.94902000 0.87854600 0.91008100 0.90206300
0.95294100 0.88226900 0.91359500 0.90589400
0.95686300 0.88600600 0.91709200 0.90970600
0.96078400 0.88974800 0.92057500 0.91350500
0.96470600 0.89348900 0.92404500 0.91729800
0.96862700 0.89722900 0.92750100 0.92108800
0.97254900 0.90097300 0.93094400 0.92488000
0.97647100 0.90471800 0.93437400 0.92867500
0.98039200 0.90846500 0.93779200 0.93247300
0.98431400 0.91221300 0.94119800 0.93627400
0.98823500 0.91596300 0.94459100 0.94007900
0.99215700 0.91971500 0.94797300 0.94388700
0.99607800 0.92346800 0.95134200 0.94769800
1.00000000 0.92722200 0.95469900 0.95151200
END_DATA
